packages/core/src/svgs/koge.svg

<svg width="24" height="24" viewBox="0 0 24 24" fill="none" xmlns="http://www.w3.org/2000/svg">
<g clip-path="url(#clip0_31_12825)">
<path d="M0 0H24V24H0V0Z" fill="#F0F3FA"/>
<path fill-rule="evenodd" clip-rule="evenodd" d="M11.9999 19.2858C13.9322 19.2858 15.7854 18.5182 17.1517 17.1518C18.5181 15.7855 19.2857 13.9324 19.2857 12.0001C19.2857 10.0678 18.5181 8.21463 17.1517 6.84829C15.7854 5.48196 13.9322 4.71436 11.9999 4.71436C10.0677 4.71436 8.21451 5.48196 6.84817 6.84829C5.48183 8.21463 4.71423 10.0678 4.71423 12.0001C4.71423 13.9324 5.48183 15.7855 6.84817 17.1518C8.21451 18.5182 10.0677 19.2858 11.9999 19.2858ZM11.9999 18.4286C13.7049 18.4286 15.34 17.7513 16.5456 16.5458C17.7512 15.3402 18.4285 13.705 18.4285 12.0001C18.4285 10.2951 17.7512 8.65997 16.5456 7.45438C15.34 6.24879 13.7049 5.5715 11.9999 5.5715C10.295 5.5715 8.65985 6.24879 7.45426 7.45438C6.24867 8.65997 5.57138 10.2951 5.57138 12.0001C5.57138 13.705 6.24867 15.3402 7.45426 16.5458C8.65985 17.7513 10.295 18.4286 11.9999 18.4286Z" fill="#FFC800"/>
<path d="M9.42859 8.91016V15.8402L10.7143 15.1544V9.62587L9.42859 8.91016ZM11.5714 14.563V13.1873L12.54 13.9244L11.5714 14.5673V14.563Z" fill="#2C2E35"/>
<path d="M12.5443 11.1515L13.6072 11.9229L12.7414 12.4801L13.83 13.3415L15.8572 12.1543L10.5386 8.23291L9.42859 8.88862L11.5714 10.4443V11.7515L12.5443 11.1515Z" fill="#FFC700"/>
</g>
<defs>
<clipPath id="clip0_31_12825">
<rect width="24" height="24" fill="white"/>
</clipPath>
</defs>
</svg>

<svg xmlns="http://www.w3.org/2000/svg" width="24" height="24" fill="none" viewBox="0 0 24 24"><g clip-path="url(#a)"><path fill="#F0F3FA" d="M0 0h24v24H0z"/><path fill="#FFC800" fill-rule="evenodd" d="M12 19.286a7.285 7.285 0 1 0 0-14.571 7.285 7.285 0 0 0 0 14.57m0-.857A6.429 6.429 0 1 0 12 5.57a6.429 6.429 0 0 0 0 12.858" clip-rule="evenodd"/><path fill="#2C2E35" d="M9.429 8.91v6.93l1.285-.686V9.626zm2.142 5.653v-1.376l.969.737-.969.643z"/><path fill="#FFC700" d="m12.544 11.152 1.063.77-.866.558 1.089.861 2.027-1.187-5.318-3.921-1.11.656 2.142 1.555v1.307z"/></g><defs><clipPath id="a"><path fill="#fff" d="M0 0h24v24H0z"/></clipPath></defs></svg>
